icons/solid/information-circle.svg

<svg width="24" height="24" viewBox="0 0 24 24" fill="none" xmlns="http://www.w3.org/2000/svg">
<path fill-rule="evenodd" clip-rule="evenodd" d="M2 12C2 6.47715 6.47715 2 12 2C17.5228 2 22 6.47715 22 12C22 17.5228 17.5228 22 12 22C6.47715 22 2 17.5228 2 12ZM13 8C13 7.44772 12.5523 7 12 7C11.4477 7 11 7.44772 11 8C11 8.55228 11.4477 9 12 9C12.5523 9 13 8.55228 13 8ZM12 17C12.5523 17 13 16.5523 13 16V12C13 11.4477 12.5523 11 12 11C11.4477 11 11 11.4477 11 12V16C11 16.5523 11.4477 17 12 17Z" fill="currentColor"/>
</svg>

<svg width="24" height="24" fill="none" xmlns="http://www.w3.org/2000/svg"><path fill-rule="evenodd" clip-rule="evenodd" d="M2 12C2 6.477 6.477 2 12 2s10 4.477 10 10-4.477 10-10 10S2 17.523 2 12zm11-4a1 1 0 10-2 0 1 1 0 002 0zm-1 9a1 1 0 001-1v-4a1 1 0 10-2 0v4a1 1 0 001 1z" fill="currentColor"/></svg>
